icons/settings-6-fill.svg

<svg viewBox="0 0 24 24" fill="currentColor" xmlns="http://www.w3.org/2000/svg"><path d="M17.5 2.47363L23 11.9999L17.5 21.5262H6.5L1 11.9999L6.5 2.47363H17.5ZM8.63398 8.16979L13.634 16.83L15.366 15.83L10.366 7.16979L8.63398 8.16979Z"/></svg>

<svg xmlns="http://www.w3.org/2000/svg" viewBox="0 0 24 24">
    <g>
        <path fill="none" d="M0 0h24v24H0z"/>
        <path d="M17.5 2.474L23 12l-5.5 9.526h-11L1 12l5.5-9.526h11zM8.634 8.17l5 8.66 1.732-1-5-8.66-1.732 1z"/>
    </g>
</svg>
